X: 442
M: C
L: 1/8
K: Gmix
V: 1
c |\
|: ^f |\
(g>ag)d (ga)(gd) | ^fgfc TA2F^f |
g>agd g>agd | c<Ad>c TB2G^f |\
g>agd g>agd | ^f>gfc TA2FA |\
V: 2 clef=bass middle=d
z |\
g2g2 g2g2 | f2f2 f2f2 |\
g2g2 g2g2 | d2d2 G2G :|\
|: z |\
g2g2 g2g2 |
f2f2 f2f2 |\
g2g2 g2g2 | d2d2 G2G2 |\
g2g2 g2g2 | f2f2 F2F2 |\

